X: 1
T: The Hazel Tree
T: 8x32R 3C (John Drewry, Brodie Book)
P: Sandy Pirie of Hazelhead
R: Reel
C: Ian Munro
C: from Muriel Johnstone "Dancer's Miscellany 4"
C: arr. T. Traub 6-29-2012
M: 6/8
L: 1/8
K: D
|: A|"D"d2 A d2 A|"A"e2 A a2 g|"D"faf "A"eae|"E"ded "A"cBA|"D"d2 A d2 A|"A"e2 A a2 g|"D"fgf "A"efe|"D"d3 d2 :|
|: e/d/|"A"c2 e ABc|"D"d2 f A2 A|"G"g2 g gab|"D"a2 g fed|"A"c2 e ABc|"D"d2 f Aaf|"A"eAA eac|"D"d3 d2 :|
